!!!OTL: DORT UNT IN SELBEN GRUENDLA
!!!ARE: Europa, Mitteleuropa, Deutschland; Oesterreich, Boehmen
!!!SCT: E0655
!!!YEM: Copyright 1995, estate of Helmut Schaffrath.
**kern
*ICvox
*Ivox
*M4/4
*k[b-e-]
*B-:
{4f
=1
4b-
4b-
4b-
4b-
=2
4dd
4dd
4r}
{8cc
8dd
=3
4ee-
4dd
8dd
8cc
8b-
8dd
=4
2cc
4r}
{8dd
8ff
=5
4ee-
4dd
8cc
8dd
8cc
8b-
=6
4a
4f
4r}
{8f
8a
=7
4cc
4cc
4cc
8b-
8cc
=8
4ee-
4dd
4r}
{8cc
8dd
=9
4ee-
4dd
4b-
4cc
=10
2b-
4r}
==
!!!AGN: Liebes - Lied
!!!ONB: ESAC (Essen Associative Code) Database: ERK2
!!!AMT: simple quadruple
!!!AIN: vox
!!!EED: Helmut Schaffrath
!!!EEV: 1.0
*-
